F[BALLADE
CUT[Braut - Werbung (Hildesage)
    Bie vrie ischt auf der Eltmaschuhn!]
CNR[Bie vrie ischt auf der Eltmaschuhn!]
REG[Suedosteuropa, Jugoslawien, Gottschee, Innlauf]
SRC[1, S. 28
    1905 aufgezeichnet]
KEY[Q0003A 08 Bb 2/4]
MEL[-5_  11-71  221
    3  21-7-6  -7-6-5_
    -5_-5-7  1_0_  232-7  1_ //] >>
FCT[Ballade, Braut - Werbung]
CMT[Letzte Zeile = Refrain auf sinnfreie Silben.]
